X:1
T:Open the Door to Three
T:Open the Door to Three
T:Porteous Coll. 1820
C:Porteous Coll. 1820
L:1/8
M:6/8
K:G
V:1 treble 
V:1
 F |:"G" G2 G- GDB, | G,B,D GAB |"Am" [Ec]3"A9" [EB]3 |"D7" ABG FED |"G" G2 G- GDB, | %6
"G" G,B,D GAB |"Am" cde"D7" def |1"G" gdc"D7" BAB :|2"D7" g3 G2 || f |"G" g2 g- gdB | gdB"D7" def | %13
"Em" gag"G" gdB |"Am" Aag"D" fed |"G" g2 g- gdB | gdB"D" def |"G" gab"D7" agf |"G" gdB GBd | %19
"G" g2 g- gdB | gdB"D" def |"Em" gag"G" gdB |"Am" Aa"A7"g fe"D7"d |"Em" gab"D" fga |"C" efg fed | %25
"Am" cde"D7" def |"G" gdc"D7" BAB |] %27

